communes/292.svg

<?xml version="1.0" encoding="UTF-8" standalone="no"?>
<svg
   xmlns:dc="http://purl.org/dc/elements/1.1/"
   xmlns:cc="http://creativecommons.org/ns#"
   xmlns:rdf="http://www.w3.org/1999/02/22-rdf-syntax-ns#"
   xmlns:svg="http://www.w3.org/2000/svg"
   xmlns="http://www.w3.org/2000/svg"
   xmlns:sodipodi="http://sodipodi.sourceforge.net/DTD/sodipodi-0.dtd"
   xmlns:inkscape="http://www.inkscape.org/namespaces/inkscape"
   id="svg2780"
   height="254.6413"
   width="217.39236"
   version="1.0"
   sodipodi:docname="292.svg">
  <metadata
     id="metadata11">
    <rdf:RDF>
      <cc:Work
         rdf:about="">
        <dc:format>image/svg+xml</dc:format>
        <dc:type
           rdf:resource="http://purl.org/dc/dcmitype/StillImage" />
      </cc:Work>
    </rdf:RDF>
  </metadata>
  <defs
     id="defs9" />
  <sodipodi:namedview
     pagecolor="#ffffff"
     bordercolor="#666666"
     borderopacity="1"
     objecttolerance="10"
     gridtolerance="10"
     guidetolerance="10"
     inkscape:pageopacity="0"
     inkscape:pageshadow="2"
     inkscape:window-width="640"
     inkscape:window-height="480"
     id="namedview7" />
  <g
     style="display:inline;opacity:1"
     id="layer2">
    <path
       d="m 1,1 3.91622,164.51061 c 2.797294,117.50759 204.76263,117.50759 207.55992,0 L 216.39236,1 Z"
       id="path3282"
       style="fill:#d64220;fill-opacity:1;fill-rule:evenodd;stroke:#000000;stroke-width:2;stroke-linecap:butt;stroke-miterlimit:4;stroke-dashoffset:0;stroke-opacity:1" />
  </g>
  <g
     style="display:inline"
     id="layer4">
    <path
       id="rect822"
       d="M 104.11328 20.310547 C 97.958585 20.414658 91.937674 21.645698 87.337891 23.859375 L 86.904297 67.367188 L 71.552734 58.265625 C 62.201496 60.706905 56.533671 66.48816 57.525391 78.765625 L 86.5625 101.50977 L 86.294922 128.34375 L 71.552734 119.60547 C 62.2015 122.04675 56.533671 127.82801 57.525391 140.10547 L 85.955078 162.37305 L 85.337891 224.17383 C 93.611934 232.88817 119.85285 237.11571 132.05469 228.17383 L 131.03516 127.08203 L 159.86719 104.49805 C 160.85891 92.220585 155.19108 86.439327 145.83984 83.998047 L 130.69141 92.978516 L 130.05469 29.859375 C 125.00279 23.094968 114.37111 20.137028 104.11328 20.310547 z "
       style="fill:#fdea2b;fill-opacity:1;stroke:#000000;stroke-opacity:1;stroke-linejoin:miter" />
  </g>
</svg>

<?xml version="1.0" encoding="UTF-8"?>
<svg version="1.0" viewBox="0 0 217.39 254.64" xmlns="http://www.w3.org/2000/svg" xmlns:cc="http://creativecommons.org/ns#" xmlns:dc="http://purl.org/dc/elements/1.1/" xmlns:rdf="http://www.w3.org/1999/02/22-rdf-syntax-ns#">
<metadata>
<rdf:RDF>
<cc:Work rdf:about="">
<dc:format>image/svg+xml</dc:format>
<dc:type rdf:resource="http://purl.org/dc/dcmitype/StillImage"/>
</cc:Work>
</rdf:RDF>
</metadata>
<g>
<path d="m1 1 3.9162 164.51c2.7973 117.51 204.76 117.51 207.56 0l3.9162-164.51z" fill="#d64220" fill-rule="evenodd" stroke="#000" stroke-width="2"/>
</g>
<g>
<path d="m104.11 20.311c-6.1547 0.10411-12.176 1.3352-16.775 3.5488l-0.43359 43.508-15.352-9.1016c-9.3512 2.4413-15.019 8.2225-14.027 20.5l29.037 22.744-0.26758 26.834-14.742-8.7383c-9.3512 2.4413-15.019 8.2225-14.027 20.5l28.43 22.268-0.61719 61.801c8.274 8.7143 34.515 12.942 46.717 4l-1.0195-101.09 28.832-22.584c0.99172-12.277-4.6761-18.059-14.027-20.5l-15.148 8.9805-0.63672-63.119c-5.0519-6.7644-15.684-9.7223-25.941-9.5488z" fill="#fdea2b" stroke="#000"/>
</g>
</svg>
